X:1
T:20 Mélodies
T:L'éternelle idole
T:À Auguste RODIN
T:Augusta Holmès
T:20 Mélodies
T:8. L'éternelle idole
T:(Holmès)
T:OpenScore (CC0)
T:OpenScore (CC0)
T:OpenScore (CC0)
T:OpenScore (CC0)
C:Augusta Mary Holmès
Z:(Composer)
Z:OpenScore (CC0)
%%score 1 { ( 2 5 ) | ( 3 4 ) }
L:1/8
Q:1/4=40
M:3/4
K:D
V:1 treble nm="Chant\nVoice"
V:2 treble nm="Piano"
V:5 treble 
V:3 bass 
V:4 bass 
V:1
"^Lento" z6 | z6 | !fermata!z6 ||!p!!<(! F A!<)! d!>(! B (A F/) G/!>)! ||[M:2/4] A2- A z || %5
w: |||A ge- noux de- vant ta lan-|\-gueur, _|
[M:3/4]!<(! F A d!<)!!>(! B (A F/) G/!>)! ||[M:2/4] A2 A A/ A/ || %7
w: A ge- noux de- vant ta fai-|bles- se, Lais- se-|
[M:3/4]!<(! _B3/2 B/ d2 =c3/2!<)! B/ |!f! (e2 d2)!p!"^sans presser" c/ B/ c/ (d/ || %9
w: \- moi ré- pan- dre mon|cœur _ A tes pieds d'en-|
[M:2/4] F2) (3(F!<(!^G) E!<)! ||[M:3/4]!>(! (c2 B2)!>)! A2- | A2-!p! A z z2 | %12
w: fant, ô _ Dé-|\- es- * se!|_ _|
 A2 z/!<(! A/ A/ A/ A/ z/ A/ A/!<)! | =c2- c z z2 | z!f!!<(! =c/ c/ c z/ c/ c =B/ A/!<)! | %15
w: Vois, mon bras si fort est li-|\- é, _|Et mon col se tend à la|
 e2 e2 z2 |!mf! e2 z2 B3/2 B/ | e2- e/ z/"^dim." !tenuto!A A3/2 !tenuto!A/ | %18
w: chaî- ne,|Et mon dé-|sir _ est ou- bli-|
"^à volonté" !tenuto!d2- d z!p!"^amèrement" (3(=F F G ||[M:2/4] A4- | A4 || %21
w: é _ Puis- qu'il te|gêne!|_|
[M:3/4]!pp! F A !breath!d) B (A F/) G/ ||[M:2/4] A2- A z ||[M:3/4]!f! A =c =f d (c A/) _B/ || %24
w: A ge- noux de- vant- ta beau-|té, _|A ge- noux de- vant ton men-|
[M:2/4] =c2 c c/ c/ ||[M:3/4]!<(! _d2 =f f _e3/2 d/!<)! |!f! (g2 =f2) (3e d (f | A3)!p! B A G | %28
w: son- ge, Je ne|veux d'au- tre vo- lup-|\- té _ Que l'es- cla-|vage où je me|
 (d2 =c4) |"^agitato"[Q:1/4=42] =c2- c/!<(! c/[Q:1/4=44] c/ c/ c c/ _d/!<)! |!mp! _e4- e z | %31
w: plon- ge!|Tu _ ne com- prends pas mes  san-|\- glots! _|
 z2!f!!<(! ^d/ d/ d/ d/ d d/ e/!<)! | f2 f z F3/2 F/ |!f! f3 F/ F/ A3/2 B/ | A4- A z | %35
w: Tu ne  com- prends pas mon mar-|ty- re! Et les|pleurs que je  verse à|flots _|
 z2 z2!p!"^à volonté" (3=F E D | A6- | A2 !breath!A4 |!p!!<(! F A d!<)! B (A F/) G/ | A4- A z | %40
w: Te font sou-|\- ri-|* re!|A ge- noux de- vant ta lan-|gueur, _|
!f!!<(! F A!<)! d B (A F/) G/ | A2 A z"^cresc." A3/2 A/ | B3/2 B/ !^!d2 !^!c !^!d | %43
w: A ge- noux de- vant ta fai-|bles- se, Te li-|vrant mon  âme et mon|
!f! (!fermata!a2 f2) e/ d/ A/ F/ | B4!<(! B/ c/ d/ B/!<)! | %45
w: cœur, _ Lais- se- moi  mou-|rir, Lais- se- moi  mou-|
[Q:1/4=42]!>(! (f2!>)![Q:1/4=40] e2)"^molto rall."[Q:1/4=36] (3(F^G) E | %46
w: rir, _ ô _ Dé-|
!f![Q:1/4=30]!<(! B2 (c4!<)! |[Q:1/4=40]"^a Tempo" d2) z4 | z6 | z6 | z6 | !fermata!z6 |] %52
w: es- *|\- se!|||||
V:2
"^Lento" z!f! ([ff'][ee'][dd'][Aa][Ff] |!>(! [Bb]4)!>)!!p!!<(! (3[B,B][Cc][Dd]!<)! | %2
!mf!!>(! [Gg-]4!>)! !fermata!g2 || z2!pp! [FAf]2- [FAf] z || %4
[M:2/4]"_sospirando"!>(! ([G-A-c-f]2!>)! [GAce]2) ||[M:3/4] z2 [FAf]2- [FAf] z || %6
[M:2/4]"_sospirando"!>(! ([G-A-c-f]2!>)! [GAce]) z ||[M:3/4]!f! [_A_Bd]4- [ABd] z | %8
!f!!>(! [^Gd^g]6- ||[M:2/4] [^Gd^g]2-!>)! [Gdg] z ||[M:3/4] z2!p! (G4 | %11
!<(! F) z!<)!"^M. G." !arpeggio![Adf]2 z2 | x2"^M. G." !arpeggio![Acg]2 z2 | %13
 z2"^M. G." !arpeggio![=c=fa]2 z2 |!>(! x2"^M. G." !arpeggio![=ce_b]2!>)! z2 | %15
!f! z2"^M. G." !arpeggio![eac']2 z2 |!>(! z2"^M. G." !arpeggio![e^gd']2 z2!>)! | %17
!p!!>(! ([E-G-_B]2 [EGA]2-) [EGA]!>)! z |!pp!!>(! [D=F_A]2-!>)! [DFA] z z2 || %19
[M:2/4] z2!pp! [A,=C=FA]2 | z2 [A,CGA]2 ||[M:3/4] z2 [FAf]2- [FAf] z || %22
[M:2/4] ([G-A-c-f]2 [GAce]2) ||[M:3/4] z2 [A=ca]2- [Aca] z || %24
[M:2/4]!f!!>(! ([_B-=c-e-a]2!>)! [Bceg]2) ||[M:3/4] [_c_d=f]4- [cdf] z |!f! [B=fb]6- | %27
 [B=fb]2- [Bfb] z z2 |!pp! [E_B]4- [EB] z | %29
"_animando un poco""_Croisez   les mains" (=C_E_A=F EC/_D/ | %30
 _E)!f!!>(! (!^![_d-_e-g-=c'][deg_b])!>)!!>(! (!arpeggio!!^![G-d-g][G-d-=f][Gde])!>)! | %31
!f! (^DF"_cresc."B^G FD/E/ | %32
 F)!f! (!^![e-f-^a-^d'][efac'])!>(! (!arpeggio![^A-e-a][A-e-^g][Aef])!>)! |!f! (FAdB AF/G/ | %34
 A)!ff!!8va(! (!^![g-a-c'-f'][gac'e'])!8va)!!>(! (!arpeggio![c-g-c'][c-g-b]!>)![cga]) | %35
!mf! [d_ad']2- [dad']2 z2 | z2!pp! [A,=C=FA]2 z2 | z2 [A,CGA]2 z2 | %38
 z/!p!!<(! (A,/4D/4(6:4:6F/4A/4d/4f/4a/4d'/4!<)! f'2) z2 | %39
!>(! ([CGc]2 (!arpeggio![C-G-B]2!>)! [CGA]2)) | z/ (A,/4D/4(6:4:6F/4A/4d/4f/4a/4d'/4 f'2) z2 | %41
!>(! [CGc]2 (!arpeggio![C-G-B]2!>)! [CGA]2) |!f! !^![DG=B]2 !^![DGd]2- [DGd] z | %43
!f! [FAdf] z !fermata!z2 z2 |!f!!>(! ([^G-d-f]2!>)! [Gde]2-) [Gde] z | z6 | %46
"^molto rall."!p!"_cresc." (([DG-B]2!<(! [CGA]4))!<)! | %47
"^a Tempo" [DFA]!f! ([ff'][ee'][dd'][Aa][Ff] | [Bb]4)!<(! (3([B,B][Cc][Dd]!<)! |!mf! [Gg]6 | %50
!p!"_dim." [Fdf]6-) | [Fdf]2!ppp! z2 !fermata!z2 |] %52
V:3
 z (FEDA,F, |!ped! B,4) (3B,,C,D,!ped-up! |!ped! G,4- !fermata!G,2!ped-up! || %3
!ped! D,,2 [A,D]2- [A,D] z!ped-up! ||[M:2/4]!ped! z2 [A,C]2!ped-up! || %5
[M:3/4]!ped! D,,2 [A,D]2- [A,D]!ped-up! z ||[M:2/4]!ped! z2 [A,C] z!ped-up! || %7
[M:3/4] [_B,D]4- [B,D] z | [E,B,D]6- ||[M:2/4] [E,B,D]2- [E,B,D] z ||[M:3/4] z2 [E,A,]2- [E,A,] z | %11
"^M. D.""_M. G."!p! (F,A,D!mp!!>(!B, A,F,/!p!G,/)!>)! |!ped! A,2- A,2-!ped-up! A, x | %13
"^M. D."!f!!ped! (A,=C=FD CA,/_B,/!ped-up! |!ped! =C2-) C2- C x!ped-up! | %15
"_M. G."!ped! E,,2 z2 z2!ped-up! |"_M. G."!ped! E,,2 z2 z2!ped-up! | C2- C2- C2 | %18
 (!arpeggio![_B,,-=C]2 [B,,_B,]) z z2 ||[M:2/4] z2"_una corda" [=F,,=C,=F,]2 | z2 [E,,A,,E,]2 || %21
[M:3/4]!pp!!ped! D,,2 [A,D]2- [A,D] z!ped-up! ||[M:2/4]!ped! z2 [A,C]2!ped-up! || %23
[M:3/4]!f!!ped! =F,,2 [=C=F]2- [CF] z!ped-up! ||[M:2/4] z2 [=CE]2 ||[M:3/4] [_D=F]4- [DF] z | %26
 [G,D=F]6- | [G,D=F]2- [G,DF] z z2 | (=C,2 [G,=C]4) | %29
!ped! _A,,2[K:treble] !arpeggio![_e_a=c']2 z2!ped-up! | %30
[K:bass]!ped! z[K:treble] (!arpeggio![_E-G-=c][EG_B]) (E=FE)!ped-up! | %31
[K:bass]!ped! B,,2[K:treble] !arpeggio![fb^d']2!ped-up! z2 | %32
[K:bass]!ped! z[K:treble] (!arpeggio![F-^A-^d][FAc]) (F^GF)!ped-up! | %33
[K:bass]!ped! D,,2[K:treble] !arpeggio![ad'f']2 z2!ped-up! | %34
[K:bass]!ped! A,,[K:treble] (!arpeggio!!^![A-c-f][Ace]) (ABA)!ped-up! | [_B,=F_A]2- [B,FA]2 z2 | %36
[K:bass] z2 [=F,,=C,=F,]2 z2 | z2 [E,,A,,E,]2 z2 | %38
!ped! D,,2[K:treble] !arpeggio![A,DFA]2!ped-up! z2 | %39
[K:bass] !arpeggio![E,,A,,E,]2({A,,,A,,)E,G,} (B,2 A,2) | %40
!f!!ped! D,,2[K:treble] !arpeggio![A,DFA]2!ped-up! z2 | %41
[K:bass] !arpeggio![E,,A,,E,]2({A,,,A,,E,G,)} (B,2 A,2) |{G,,D,} !^!B,2 !^!_B,2- B, z | %43
 !arpeggio![A,,D,F,A,] z !fermata!z2 z2 |!ped!{/E,,} [E,B,D]2- [E,B,D]2- [E,B,D]!ped-up! z | z6 | %46
 !///-!A,,,3 A,,3 | [D,,,D,,]/ z/ (FEDA,F, |!ped! B,4) (3B,,C,!ped-up!D, | G,6 | %50
!ped! !///-!D,,,3 D,,3 | D,,,2!ped-up! z2 !fermata!z2 |] %52
V:4
 x6 | z2 [G,,,G,,]2- [G,,,G,,] z | z2 [A,,,A,,]2- [A,,,A,,] !fermata!z || x6 || %4
[M:2/4] [E,,E,]2- [E,,E,] z ||[M:3/4] x6 ||[M:2/4] [E,,E,]2- [E,,E,] x ||[M:3/4] x6 | x6 || %9
[M:2/4] x4 ||[M:3/4] A,,4- A,, z | D,,2 z2 z2 | A,,2 z2 z2 | =F,,2 z2 z2 | =C,,2 z2 z2 | x6 | x6 | %17
 (_B,2 A,2-) A, z | x6 ||[M:2/4] x4 | x4 ||[M:3/4] x6 ||[M:2/4] [E,,E,]2- [E,,E,]2 ||[M:3/4] x6 || %24
[M:2/4] [G,,G,]2- [G,,G,]2 ||[M:3/4] x6 | x6 | x6 | x6 | x2[K:treble] x4 | %30
[K:bass] _E,,3[K:treble] _B,3 |[K:bass] x2[K:treble] x4 |[K:bass] F,,3[K:treble] C3 | %33
[K:bass] x2[K:treble] x4 |[K:bass] x3[K:treble] E3 | x6 |[K:bass] x6 | x6 | x2[K:treble] x4 | %39
[K:bass] x6 | x2[K:treble] x4 |[K:bass] x6 | x6 | x6 | x6 | x6 | x6 | x6 | %48
 z2 [G,,,G,,]2- [G,,,G,,] z | z2 [A,,,A,,]2- [A,,,A,,] z | x6 | x6 |] %52
V:5
 x6 | x6 | z2 (B2 [Gc]2) || x6 ||[M:2/4] x4 ||[M:3/4] x6 ||[M:2/4] x4 ||[M:3/4] x6 | x6 || %9
[M:2/4] x4 ||[M:3/4] x2 (D2 C2 | D) x x2 x2 | ([C-F]2 [CE]2-) [CE] z | x6 | %14
 ([E-A]2 [EG]2-) [EG] z | (^CEAF EC/D/) | [E-^G-c]2 [EGB]2- [EGB] z | x6 | x6 ||[M:2/4] x4 | x4 || %21
[M:3/4] x6 ||[M:2/4] x4 ||[M:3/4] x6 ||[M:2/4] x4 ||[M:3/4] x6 | x6 | x6 | x6 | x6 | x6 | x6 | x6 | %33
 x6 | x!8va(! x2!8va)! x3 | x6 | x6 | x6 | x6 | x6 | x6 | x6 | x6 | x6 | x6 | x6 | x6 | x6 | x6 | %49
 z2!>(! B2 c2!>)! | x6 | x6 |] %52

